src/lib/packages/icons/src/assets/filled/vimeo.svg

<svg width="24" height="24" viewBox="0 0 24 24" fill="none" xmlns="http://www.w3.org/2000/svg">
<path d="M20.99 8.73981C20.91 10.4998 19.69 12.8998 17.32 15.9498C14.87 19.1398 12.8 20.9998 11.11 20.9998C10.06 20.9998 9.17 19.7498 8.45 17.8098C7.97 16.0298 7.48001 14.2498 7.00001 12.4698C6.46001 10.5298 5.88 9.55981 5.27 9.55981C5.14 9.55981 4.66001 9.83981 3.86001 10.4098L3.01001 9.31982C3.90001 8.53982 4.77001 7.75981 5.64001 6.96981C6.82001 5.93981 7.71001 5.40981 8.31001 5.34981C9.71001 5.21981 10.57 6.1698 10.9 8.2298C11.25 10.4498 11.49 11.8198 11.63 12.3598C12.03 14.1998 12.48 15.1198 12.96 15.1198C13.34 15.1198 13.9 14.5198 14.66 13.3298C15.41 12.1398 15.82 11.2298 15.87 10.6098C15.98 9.57981 15.57 9.06982 14.66 9.06982C14.23 9.06982 13.78 9.1698 13.33 9.3698C14.21 6.4698 15.9 4.9298 18.4 5.0098C20.25 5.0598 21.12 6.38981 21.01 8.73981" fill="currentColor"/>
</svg>

<svg xmlns="http://www.w3.org/2000/svg" width="24" height="24" fill="none"><path fill="currentColor" d="M20.99 8.74c-.08 1.76-1.3 4.16-3.67 7.21C14.87 19.14 12.8 21 11.11 21c-1.05 0-1.94-1.25-2.66-3.19-.48-1.78-.97-3.56-1.45-5.34-.54-1.94-1.12-2.91-1.73-2.91-.13 0-.61.28-1.41.85l-.85-1.09c.89-.78 1.76-1.56 2.63-2.35 1.18-1.03 2.07-1.56 2.67-1.62 1.4-.13 2.26.82 2.59 2.88.35 2.22.59 3.59.73 4.13.4 1.84.85 2.76 1.33 2.76.38 0 .94-.6 1.7-1.79.75-1.19 1.16-2.1 1.21-2.72.11-1.03-.3-1.54-1.21-1.54-.43 0-.88.1-1.33.3.88-2.9 2.57-4.44 5.07-4.36 1.85.05 2.72 1.38 2.61 3.73"/></svg>
